resources/svg/manual.svg

<svg xmlns="http://www.w3.org/2000/svg" viewBox="0 0 24 24" fill="currentColor"><path fill="none" stroke="currentColor" stroke-width="2" d="M14,9 L14,17 L14,9 Z M10,9 L10,17 L10,9 Z M8,5 C8,7.209 9.791,9 12,9 C14.209,9 16,7.209 16,5 C16,2.791 14.209,1 12,1 C9.791,1 8,2.791 8,5 Z M4,23 L20,23 L20,20 L4,20 L4,23 Z M7,20 L17,20 L17,17 L7,17 L7,20 Z"/></svg>

<svg viewBox="0 0 24 24"><path fill="none" stroke="currentColor" stroke-width="2" d="M14 9v8v-8zm-4 0v8v-8zM8 5a4 4 0 1 0 8 0a4 4 0 0 0-8 0zM4 23h16v-3H4v3zm3-3h10v-3H7v3z"/></svg>
